RestoDelMundo/Brasil/Campeonato Brasileño de Serie A/Sociedade Esportiva Palmeiras.svg

<svg xmlns="http://www.w3.org/2000/svg" width="1000" height="1000" viewBox="0 0 1000 1000"><g transform="translate(226.307 -45.119)scale(4.5238)"><path fill="#008f5f" d="M60.5 225.5c57.833 0 105.003-47.168 105.003-105s-47.17-105-105.003-105-105.002 47.168-105.002 105 47.169 105 105.002 105"/><path fill="#fff" d="M60.47 138.851c29.342 0 53.273-23.929 53.273-53.271S89.813 32.309 60.47 32.309 7.197 56.238 7.197 85.58s23.931 53.271 53.273 53.271"/><path fill="#fff" d="M60.47 135.961c27.748 0 50.379-22.632 50.379-50.381S88.217 35.2 60.47 35.2c-27.749 0-50.38 22.632-50.38 50.38s22.631 50.381 50.38 50.381"/><path fill="none" stroke="#008f5f" stroke-linejoin="round" stroke-miterlimit="1" stroke-width="1.465" d="M60.47 135.961c27.748 0 50.379-22.632 50.379-50.381S88.217 35.2 60.47 35.2c-27.749 0-50.38 22.632-50.38 50.38s22.631 50.381 50.38 50.381z"/><ellipse cx="60.5" cy="120.5" fill="none" stroke="#fff" stroke-miterlimit="1" stroke-width="2.089" rx="100.512" ry="100.508" transform="rotate(-1.009 60.399 120.305)"/><path fill="#fff" d="M60.5 135.937c-31.463-21.901-43.217-61.091-39.893-81.108C40.585 52.657 55.146 40.293 60.5 35.232c5.354 5.075 19.915 17.44 39.893 19.61 3.324 20.019-8.43 59.209-39.893 81.095"/><path fill="none" stroke="#008f5f" stroke-linejoin="round" stroke-miterlimit="1" stroke-width="1.465" d="M60.5 135.937c-31.463-21.901-43.217-61.091-39.893-81.108C40.585 52.657 55.146 40.293 60.5 35.232c5.354 5.075 19.915 17.44 39.893 19.61 3.324 20.019-8.43 59.209-39.893 81.095z"/><path fill="#fff" d="m2.8 53.603-3.051-.334 2.675-1.536-.651-3.097 2.343 2.113 2.686-1.553-1.274 2.834 2.319 2.089-3.119-.336-1.238 2.854ZM-4.478 63.796l-3.876.119 3.077-2.392-1.359-3.76 3.302 2.231 3.088-2.414-1.095 3.77 3.268 2.205-3.961.129-1.047 3.786ZM-10.717 78.418l-4.532 1.363 2.873-3.789-2.79-4.004 4.598 1.587 2.878-3.822-.102 4.791 4.55 1.567-4.629 1.403-.039 4.797ZM-14.94 98.294l-6.148 3.234 3.076-6.266-5.141-4.987 7.07.999 3.076-6.313 1.197 6.933 6.995.981-6.278 3.318 1.288 6.921ZM118.201 53.603l3.049-.334-2.674-1.536.653-3.097-2.345 2.113-2.686-1.553 1.275 2.834-2.319 2.089 3.117-.336 1.239 2.854ZM125.479 63.796l3.875.119-3.079-2.392 1.362-3.76-3.303 2.231-3.088-2.414 1.095 3.77-3.269 2.205 3.962.129 1.047 3.786ZM131.717 78.418l4.532 1.363-2.873-3.789 2.791-4.004-4.599 1.587-2.877-3.822.101 4.791-4.55 1.567 4.629 1.403.039 4.797ZM135.941 98.294l6.146 3.234-3.075-6.266 5.142-4.987-7.069.999-3.078-6.313-1.196 6.933-6.997.981 6.28 3.318-1.289 6.921ZM25.799 134.979c-.209-.167-.639-.132-.8.082l-33.37 44.197c-.405.539-.301 1.321.152 1.818 5.693 6.268 11.525 11.54 18.361 16.365.422.298 1.181.895 1.547.037l3.56-8.352c.194-.455.039-1.159-.371-1.438-3.521-2.383-6.607-5.182-9.583-8.018-.455-.434-.389-1.482-.033-2.001l26.296-38.158c.121-.176-.058-.479-.237-.596-1.948-1.245-3.803-2.55-5.522-3.936M-25.486 151.474c-.117-.361.254-.783.575-.986l40.223-25.453c.215-.137.606-.031.749.136a281 281 0 0 0 3.598 4.188c.204.231.393.634.232.898l-29.45 48.229c-.194.317-.87.105-1.1-.187-1.204-1.526-2.357-3.04-3.429-4.662-.201-.303-.093-.779.1-1.089l6.854-11.021c.389-.624.397-.971.147-1.653a207 207 0 0 1-3.17-9.289c-.1-.319-.708-.381-.987-.196l-10.991 7.327c-.285.19-.883.132-1.011-.186-.785-1.952-1.678-4.003-2.34-6.056"/><path fill="#008f5f" d="m7.422 138.123-8.951 14.394c-.302.484-.707.186-.878-.239-.704-1.759-1.38-3.63-1.947-5.688-.084-.307.013-.737.278-.912l11.443-7.63c.079-.053.116-.024.055.075"/><path fill="#fff" d="M-7.665 136.192c-3.063-3.913-5.796-8.3-8.33-13.144-.237-.453-.649-.447-.972-.334l-12.749 4.407c-.788.271-.912-.208-.942-.574-.239-2.997-.192-5.982-.167-8.987.006-.681.346-.936.757-1.018L6.5 109.293c.401-.08.731.117.827.357 1.783 4.446 3.858 8.185 6.402 12.252.151.241-.031.761-.208.885L-6.425 136.41c-.44.315-.857.273-1.24-.218M56.835 212.867c.439.018.463-.336.465-.599l.464-64.642c.001-.21-.285-.378-.495-.392a63 63 0 0 1-4.892-.509c-.241-.033-.553.114-.65.335l-7.808 17.988c-.173.396-.375.368-.389-.061l-.644-20.2c-.008-.245-.089-.387-.245-.443a70 70 0 0 1-5.582-2.301c-.177-.08-.45-.105-.561.161l-23.494 56.473c-.106.253.01.644.244.79a84 84 0 0 0 6.926 3.915c.303.153.824.33 1.003-.175l14.378-40.388c.179-.504.285-.529.296.044l.609 34.258c.033 1.857.175 1.813.918.157l13.685-30.485c.202-.451.298-.394.263.052l-3.596 44.562c-.024.311.302.67.611.712a85 85 0 0 0 8.494.748M80.425 151.314a81.5 81.5 0 0 1-10.571 2.515c-.275.049-.515.395-.508.675l.385 16.938c.008.328.221.729.746.649 4.19-.626 8.381-1.398 12.57-2.328.523-.116.787.01.913.809l1.054 6.672c.051.326.104.822-.393.943a159 159 0 0 1-13.881 2.734c-.368.057-.79.206-.777.81l.4 17.664c.02.893.586 1.377 1.08 1.34 5.307-.414 10.679-1.848 15.898-3.148.36-.09.852-.214.971.546l1.445 9.151c.085.539-.38.979-.971 1.151-8.825 2.71-17.139 4.334-26.712 4.515-.695.029-1.25-.189-1.245-.812l.457-64.179c.002-.387.6-.585.984-.61 6.177-.406 11.291-1.23 16.656-3.223.613-.228.826-.183.869.083l1.029 6.52c.063.381-.095.5-.399.585M94.02 206.482c-.211.083-.563.058-.619-.247l-11.57-63.023c-.032-.174.041-.233.223-.315a78 78 0 0 0 5.168-2.536c.166-.088.459-.165.521.07l16.014 60.673c.128.482.066.739-.205.884a95 95 0 0 1-9.532 4.494M128.98 181.525c-.181.209-.541.452-.819.111l-17.728-21.521c-.156-.19-.451-.406-.703-.226l-3.078 2.2c-.297.21-.604.457-.391 1.019l10.982 29.169c.129.343-.017.574-.217.732-2.864 2.293-5.756 4.32-8.875 6.292-.18.113-.53.28-.631-.069l-17.553-60.193.307-.506c4.574-2.987 8.067-5.784 11.687-9.851 1.302-1.463 2.851-.469 3.464.553l11.68 19.378c1.064 1.766 1.053 4.286-.281 5.859l-.521.613 17.676 19.166c.354.385.26.685.07.941a114 114 0 0 1-5.069 6.333"/><path fill="#008f5f" d="m107.184 150.581-4.147 2.962c-.196.141-.369.018-.421-.118l-3.983-10.577c-.046-.122-.036-.307.084-.389 1.079-.739 2.13-1.645 3.224-2.342.342-.22.582-.129.756.243l4.789 9.478c.173.348-.066.574-.302.743"/><path fill="#fff" d="M148.37 145.736c.061-.212-.062-.479-.245-.598l-39.126-25.272c-.19-.125-.392.006-.479.146-1.107 1.767-2.229 3.334-3.473 4.956-.129.167-.15.375.008.636l29.26 48.563c.146.241.367.124.457-.002 1.274-1.787 2.447-3.629 3.6-5.482.111-.18.107-.401-.033-.637l-6.617-10.981c-.131-.216-.213-.513-.121-.748l3.969-10.077c.078-.217.416-.212.578-.102l9.533 6.494c.293.198.457-.047.521-.226a111 111 0 0 0 2.168-6.67"/><path fill="#008f5f" d="M129.314 142.066c-.547 1.966-1.991 5.389-2.282 6.051-.291.657-.606.161-.73-.049l-8.415-13.967c-.268-.441-.184-.529.26-.226L128.9 141.2c.265.182.517.492.414.866"/><path fill="#fff" d="M144.369 124.448a52 52 0 0 1-1.582 5.975c-.064.199-.223.551-.6.351l-1.431-.757c-.19-.101-.512.055-.593.253l-2.216 5.36c-.136.331-.111.659.393.998l9.636 6.463c.357.241 1.016.278 1.198-.492 1.858-7.859 2.709-15.53 2.683-23.583 0-.297-.148-.662-.559-.805l-16.035-5.611c-.613-.216-1.619-.155-2.017.636-1.394 2.766-2.738 4.978-3.978 6.953-.203.323-.551.706-1.136.415l-7.825-3.891c-.334-.167-.615-.418-.367-.984l1.231-2.785c.183-.414.647-.295.916-.188l2.752 1.08c.257.101.586.132.763-.329l1.26-3.328c.111-.29-.293-.622-.588-.726l-10.494-3.672c-.397-.14-.742.177-.844.479-1.203 3.581-2.642 6.947-4.492 10.314-.35.64-.024 1.163.326 1.398l19.881 13.496c.391.267.963.245 1.361-.398a240 240 0 0 0 5.664-9.646c.139-.247.348-.404.826-.198l5.516 2.375c.281.12.444.386.351.847M60.5 132.294c28.081-19.848 39.49-56.322 37.725-75.177C79.682 55.102 64.641 43.082 60.5 38.869c-4.14 4.197-19.181 16.217-37.725 18.232-1.766 18.855 9.644 55.332 37.725 75.193"/><path fill="none" stroke="#008f5f" stroke-linejoin="round" stroke-miterlimit="1" stroke-width="1.465" d="M60.5 132.294c28.081-19.848 39.49-56.322 37.725-75.177C79.682 55.102 64.641 43.082 60.5 38.869c-4.14 4.197-19.181 16.217-37.725 18.232-1.766 18.855 9.644 55.332 37.725 75.193Z"/><path fill="#fff" d="M54.268 127.389h12.466zm-6.069-5.864h24.606zm-5.027-5.86h34.661zm-4.234-5.835h43.13zm-3.626-5.86h50.381Zm-3.107-5.863H88.8Zm-2.644-5.864h61.882zm-2.224-5.862h66.33zm-1.816-5.859h69.961Zm-1.413-5.863h72.787Zm-.978-5.822h74.742zm-.495-5.859h75.731zm.39-5.906h74.823zm19.46-5.862h35.999zm9.972-5.82h16.068z"/><path fill="none" stroke="#008f5f" stroke-linejoin="round" stroke-miterlimit="1" stroke-width="1.465" d="M54.268 127.389h12.466zm-6.069-5.864h24.606zm-5.027-5.86h34.661zm-4.234-5.835h43.13zm-3.626-5.86h50.381Zm-3.107-5.863H88.8Zm-2.644-5.864h61.882zm-2.224-5.862h66.33zm-1.816-5.859h69.961Zm-1.413-5.863h72.787Zm-.978-5.822h74.742zm-.495-5.859h75.731zm.39-5.906h74.823zm19.46-5.862h35.999zm9.972-5.82h16.068z"/><path fill="#fff" d="M41.896 109.61c6.31.563 6.445-4.396 6.445-5.024V79.801c0-.895-.961-2.214-2.876-2.649 1.895-.399 2.876-1.505 2.876-2.459l-.008-15.132c0-3.069-3.619-4.488-6.312-3.218 3.292-7.18 8.375-3.287 10.717-1.711 4.117-4.283 10.032-5.562 13.805-5.554 9.953.021 18.286 8.779 18.273 18.59-.008 8.212-8.045 18.797-18.01 18.983-4.449.084-8.971-2.305-8.976-6.423-.004-3.508 1.833-6.563 6.276-6.231 2.947.22 3.824 1.724 3.824 3.352 0 1.603-1.02 3.013-2.568 2.958-.604-.021-1.25-.144-2.01-.751.076.704 1.271 2.4 3.588 2.451 3.523.076 7.967-3.199 8.683-6.592.54-2.558-1.021-4.188-1.063-6.604-.063-3.589 2.621-4.17 1.231-8s-4.541-6.928-10.099-6.985c-3.87-.04-9.333 3.981-9.333 7.763v53.161c-2.994-.731-4.759-2.891-5.169-4.85-2.384 2.451-5.131 3.514-9.294-.29"/><path fill="none" stroke="#008f5f" stroke-linejoin="round" stroke-miterlimit="1" stroke-width="1.465" d="M41.896 109.61c6.31.563 6.445-4.396 6.445-5.024V79.801c0-.895-.961-2.214-2.876-2.649 1.895-.399 2.876-1.505 2.876-2.459l-.008-15.132c0-3.069-3.619-4.488-6.312-3.218 3.292-7.18 8.375-3.287 10.717-1.711 4.117-4.283 10.032-5.562 13.805-5.554 9.953.021 18.286 8.779 18.273 18.59-.008 8.212-8.045 18.797-18.01 18.983-4.449.084-8.971-2.305-8.976-6.423-.004-3.508 1.833-6.563 6.276-6.231 2.947.22 3.824 1.724 3.824 3.352 0 1.603-1.02 3.013-2.568 2.958-.604-.021-1.25-.144-2.01-.751.076.704 1.271 2.4 3.588 2.451 3.523.076 7.967-3.199 8.683-6.592.54-2.558-1.021-4.188-1.063-6.604-.063-3.589 2.621-4.17 1.231-8s-4.541-6.928-10.099-6.985c-3.87-.04-9.333 3.981-9.333 7.763v53.161c-2.994-.731-4.759-2.891-5.169-4.85-2.384 2.451-5.131 3.514-9.294-.29z"/><path fill="#008f5f" d="m4.001 121.945-7.985 5.384c-.265.179-.74.054-.935-.196a39.6 39.6 0 0 1-4.21-6.615c-.1-.2-.114-.475.28-.61l9.42-3.257c.105-.034.243-.058.31.051a122 122 0 0 0 3.172 4.987c.048.072.021.207-.052.256"/></g></svg>

<svg height="1000" viewBox="0 0 1000 1000" width="1000" xmlns="http://www.w3.org/2000/svg"><g transform="matrix(4.5238095 0 0 4.5238095 226.30726 -45.119045)"><path d="m 60.5 225.5 c 57.833 0 105.003 -47.168 105.003 -105 c 0 -57.832 -47.17 -105 -105.003 -105 c -57.833 0 -105.002 47.168 -105.002 105 c 0 57.832 47.169 105 105.002 105" fill="#008f5f"/><path d="m 60.47 138.851 c 29.342 0 53.273 -23.929 53.273 -53.271 c 0 -29.342 -23.93 -53.271 -53.273 -53.271 c -29.343 0 -53.273 23.929 -53.273 53.271 c 0 29.342 23.931 53.271 53.273 53.271" fill="#fff"/><path d="m 60.47 135.961 c 27.748 0 50.379 -22.632 50.379 -50.381 c 0 -27.748 -22.632 -50.38 -50.379 -50.38 c -27.749 0 -50.38 22.632 -50.38 50.38 c 0 27.749 22.631 50.381 50.38 50.381" fill="#fff"/><path d="m 60.47 135.961 c 27.748 0 50.379 -22.632 50.379 -50.381 c 0 -27.748 -22.632 -50.38 -50.379 -50.38 c -27.749 0 -50.38 22.632 -50.38 50.38 c 0 27.749 22.631 50.381 50.38 50.381 z" fill="none" stroke="#008f5f" stroke-linejoin="round" stroke-miterlimit="1" stroke-width="1.465"/><ellipse cx="60.5" cy="120.5" fill="none" rx="100.512" ry="100.508" stroke="#fff" stroke-miterlimit="1" stroke-width="2.089" transform="matrix(.9998 -.0176 .0176 .9998 -2.1081 1.0817)"/><path d="M 60.5 135.937 C 29.037 114.036 17.283 74.846 20.607 54.829 C 40.585 52.657 55.146 40.293 60.5 35.232 c 5.354 5.075 19.915 17.44 39.893 19.61 c 3.324 20.019 -8.43 59.209 -39.893 81.095" fill="#fff"/><path d="M 60.5 135.937 C 29.037 114.036 17.283 74.846 20.607 54.829 C 40.585 52.657 55.146 40.293 60.5 35.232 c 5.354 5.075 19.915 17.44 39.893 19.61 c 3.324 20.019 -8.43 59.209 -39.893 81.095 z" fill="none" stroke="#008f5f" stroke-linejoin="round" stroke-miterlimit="1" stroke-width="1.465"/><path d="M 2.8 53.603 L -.251 53.269 L 2.424 51.733 L 1.773 48.636 L 4.116 50.749 L 6.802 49.196 L 5.528 52.03 L 7.847 54.119 L 4.728 53.783 L 3.49 56.637 Z" fill="#fff"/><path d="M -4.478 63.796 L -8.354 63.915 L -5.277 61.523 L -6.636 57.763 L -3.334 59.994 L -.246 57.58 L -1.341 61.35 L 1.927 63.555 L -2.034 63.684 L -3.081 67.47 Z" fill="#fff"/><path d="M -10.717 78.418 L -15.249 79.781 L -12.376 75.992 L -15.166 71.988 L -10.568 73.575 L -7.69 69.753 L -7.792 74.544 L -3.242 76.111 L -7.871 77.514 L -7.91 82.311 Z" fill="#fff"/><path d="M -14.94 98.294 L -21.088 101.528 L -18.012 95.262 L -23.153 90.275 L -16.083 91.274 L -13.007 84.961 L -11.81 91.894 L -4.815 92.875 L -11.093 96.193 L -9.805 103.114 Z" fill="#fff"/><path d="M 118.201 53.603 L 121.25 53.269 L 118.576 51.733 L 119.229 48.636 L 116.884 50.749 L 114.198 49.196 L 115.473 52.03 L 113.154 54.119 L 116.271 53.783 L 117.51 56.637 Z" fill="#fff"/><path d="M 125.479 63.796 L 129.354 63.915 L 126.275 61.523 L 127.637 57.763 L 124.334 59.994 L 121.246 57.58 L 122.341 61.35 L 119.072 63.555 L 123.034 63.684 L 124.081 67.47 Z" fill="#fff"/><path d="M 131.717 78.418 L 136.249 79.781 L 133.376 75.992 L 136.167 71.988 L 131.568 73.575 L 128.691 69.753 L 128.792 74.544 L 124.242 76.111 L 128.871 77.514 L 128.91 82.311 Z" fill="#fff"/><path d="M 135.941 98.294 L 142.087 101.528 L 139.012 95.262 L 144.154 90.275 L 137.085 91.274 L 134.007 84.961 L 132.811 91.894 L 125.814 92.875 L 132.094 96.193 L 130.805 103.114 Z" fill="#fff"/><path d="m 25.799 134.979 c -.209 -.167 -.639 -.132 -.8 .082 l -33.37 44.197 c -.405 .539 -.301 1.321 .152 1.818 c 5.693 6.268 11.525 11.54 18.361 16.365 c .422 .298 1.181 .895 1.547 .037 l 3.56 -8.352 c .194 -.455 .039 -1.159 -.371 -1.438 c -3.521 -2.383 -6.607 -5.182 -9.583 -8.018 c -.455 -.434 -.389 -1.482 -.033 -2.001 l 26.296 -38.158 c .121 -.176 -.058 -.479 -.237 -.596 c -1.948 -1.245 -3.803 -2.55 -5.522 -3.936" fill="#fff"/><path d="m -25.486 151.474 c -.117 -.361 .254 -.783 .575 -.986 l 40.223 -25.453 c .215 -.137 .606 -.031 .749 .136 c 1.189 1.406 2.381 2.805 3.598 4.188 c .204 .231 .393 .634 .232 .898 l -29.45 48.229 c -.194 .317 -.87 .105 -1.1 -.187 c -1.204 -1.526 -2.357 -3.04 -3.429 -4.662 c -.201 -.303 -.093 -.779 .1 -1.089 l 6.854 -11.021 c .389 -.624 .397 -.971 .147 -1.653 c -1.134 -3.096 -2.2 -6.192 -3.17 -9.289 c -.1 -.319 -.708 -.381 -.987 -.196 l -10.991 7.327 c -.285 .19 -.883 .132 -1.011 -.186 c -.785 -1.952 -1.678 -4.003 -2.34 -6.056" fill="#fff"/><path d="m 7.422 138.123 l -8.951 14.394 c -.302 .484 -.707 .186 -.878 -.239 c -.704 -1.759 -1.38 -3.63 -1.947 -5.688 c -.084 -.307 .013 -.737 .278 -.912 l 11.443 -7.63 c .079 -.053 .116 -.024 .055 .075" fill="#008f5f"/><path d="m -7.665 136.192 c -3.063 -3.913 -5.796 -8.3 -8.33 -13.144 c -.237 -.453 -.649 -.447 -.972 -.334 l -12.749 4.407 c -.788 .271 -.912 -.208 -.942 -.574 c -.239 -2.997 -.192 -5.982 -.167 -8.987 c .006 -.681 .346 -.936 .757 -1.018 L 6.5 109.293 c .401 -.08 .731 .117 .827 .357 c 1.783 4.446 3.858 8.185 6.402 12.252 c .151 .241 -.031 .761 -.208 .885 L -6.425 136.41 c -.44 .315 -.857 .273 -1.24 -.218" fill="#fff"/><path d="m 56.835 212.867 c .439 .018 .463 -.336 .465 -.599 l .464 -64.642 c .001 -.21 -.285 -.378 -.495 -.392 c -1.598 -.104 -3.227 -.27 -4.892 -.509 c -.241 -.033 -.553 .114 -.65 .335 l -7.808 17.988 c -.173 .396 -.375 .368 -.389 -.061 l -.644 -20.2 c -.008 -.245 -.089 -.387 -.245 -.443 c -1.89 -.687 -3.753 -1.451 -5.582 -2.301 c -.177 -.08 -.45 -.105 -.561 .161 l -23.494 56.473 c -.106 .253 .01 .644 .244 .79 c 2.252 1.417 4.561 2.723 6.926 3.915 c .303 .153 .824 .33 1.003 -.175 l 14.378 -40.388 c .179 -.504 .285 -.529 .296 .044 l .609 34.258 c .033 1.857 .175 1.813 .918 .157 l 13.685 -30.485 c .202 -.451 .298 -.394 .263 .052 l -3.596 44.562 c -.024 .311 .302 .67 .611 .712 c 2.83 .401 5.664 .632 8.494 .748" fill="#fff"/><path d="m 80.425 151.314 c -2.981 .91 -6.155 1.756 -10.571 2.515 c -.275 .049 -.515 .395 -.508 .675 l .385 16.938 c .008 .328 .221 .729 .746 .649 c 4.19 -.626 8.381 -1.398 12.57 -2.328 c .523 -.116 .787 .01 .913 .809 l 1.054 6.672 c .051 .326 .104 .822 -.393 .943 c -4.577 1.112 -9.202 2.03 -13.881 2.734 c -.368 .057 -.79 .206 -.777 .81 l .4 17.664 c .02 .893 .586 1.377 1.08 1.34 c 5.307 -.414 10.679 -1.848 15.898 -3.148 c .36 -.09 .852 -.214 .971 .546 l 1.445 9.151 c .085 .539 -.38 .979 -.971 1.151 c -8.825 2.71 -17.139 4.334 -26.712 4.515 c -.695 .029 -1.25 -.189 -1.245 -.812 l .457 -64.179 c .002 -.387 .6 -.585 .984 -.61 c 6.177 -.406 11.291 -1.23 16.656 -3.223 c .613 -.228 .826 -.183 .869 .083 l 1.029 6.52 c .063 .381 -.095 .5 -.399 .585" fill="#fff"/><path d="m 94.02 206.482 c -.211 .083 -.563 .058 -.619 -.247 l -11.57 -63.023 c -.032 -.174 .041 -.233 .223 -.315 c 1.741 -.77 3.491 -1.64 5.168 -2.536 c .166 -.088 .459 -.165 .521 .07 l 16.014 60.673 c .128 .482 .066 .739 -.205 .884 c -3.066 1.657 -6.157 3.124 -9.532 4.494" fill="#fff"/><path d="m 128.98 181.525 c -.181 .209 -.541 .452 -.819 .111 l -17.728 -21.521 c -.156 -.19 -.451 -.406 -.703 -.226 l -3.078 2.2 c -.297 .21 -.604 .457 -.391 1.019 l 10.982 29.169 c .129 .343 -.017 .574 -.217 .732 c -2.864 2.293 -5.756 4.32 -8.875 6.292 c -.18 .113 -.53 .28 -.631 -.069 l -17.553 -60.193 l .307 -.506 c 4.574 -2.987 8.067 -5.784 11.687 -9.851 c 1.302 -1.463 2.851 -.469 3.464 .553 l 11.68 19.378 c 1.064 1.766 1.053 4.286 -.281 5.859 l -.521 .613 l 17.676 19.166 c .354 .385 .26 .685 .07 .941 c -1.591 2.142 -3.281 4.254 -5.069 6.333" fill="#fff"/><path d="m 107.184 150.581 l -4.147 2.962 c -.196 .141 -.369 .018 -.421 -.118 l -3.983 -10.577 c -.046 -.122 -.036 -.307 .084 -.389 c 1.079 -.739 2.13 -1.645 3.224 -2.342 c .342 -.22 .582 -.129 .756 .243 l 4.789 9.478 c .173 .348 -.066 .574 -.302 .743" fill="#008f5f"/><path d="m 148.37 145.736 c .061 -.212 -.062 -.479 -.245 -.598 l -39.126 -25.272 c -.19 -.125 -.392 .006 -.479 .146 c -1.107 1.767 -2.229 3.334 -3.473 4.956 c -.129 .167 -.15 .375 .008 .636 l 29.26 48.563 c .146 .241 .367 .124 .457 -.002 c 1.274 -1.787 2.447 -3.629 3.6 -5.482 c .111 -.18 .107 -.401 -.033 -.637 l -6.617 -10.981 c -.131 -.216 -.213 -.513 -.121 -.748 l 3.969 -10.077 c .078 -.217 .416 -.212 .578 -.102 l 9.533 6.494 c .293 .198 .457 -.047 .521 -.226 c .797 -2.225 1.527 -4.447 2.168 -6.67" fill="#fff"/><path d="m 129.314 142.066 c -.547 1.966 -1.991 5.389 -2.282 6.051 c -.291 .657 -.606 .161 -.73 -.049 l -8.415 -13.967 c -.268 -.441 -.184 -.529 .26 -.226 L 128.9 141.2 c .265 .182 .517 .492 .414 .866" fill="#008f5f"/><path d="m 144.369 124.448 c -.424 2.095 -.957 4.081 -1.582 5.975 c -.064 .199 -.223 .551 -.6 .351 l -1.431 -.757 c -.19 -.101 -.512 .055 -.593 .253 l -2.216 5.36 c -.136 .331 -.111 .659 .393 .998 l 9.636 6.463 c .357 .241 1.016 .278 1.198 -.492 c 1.858 -7.859 2.709 -15.53 2.683 -23.583 c 0 -.297 -.148 -.662 -.559 -.805 L 135.263 112.6 c -.613 -.216 -1.619 -.155 -2.017 .636 c -1.394 2.766 -2.738 4.978 -3.978 6.953 c -.203 .323 -.551 .706 -1.136 .415 l -7.825 -3.891 c -.334 -.167 -.615 -.418 -.367 -.984 l 1.231 -2.785 c .183 -.414 .647 -.295 .916 -.188 l 2.752 1.08 c .257 .101 .586 .132 .763 -.329 l 1.26 -3.328 c .111 -.29 -.293 -.622 -.588 -.726 l -10.494 -3.672 c -.397 -.14 -.742 .177 -.844 .479 c -1.203 3.581 -2.642 6.947 -4.492 10.314 c -.35 .64 -.024 1.163 .326 1.398 l 19.881 13.496 c .391 .267 .963 .245 1.361 -.398 c 1.983 -3.216 3.883 -6.431 5.664 -9.646 c .139 -.247 .348 -.404 .826 -.198 l 5.516 2.375 c .281 .12 .444 .386 .351 .847" fill="#fff"/><path d="M 60.5 132.294 C 88.581 112.446 99.99 75.972 98.225 57.117 C 79.682 55.102 64.641 43.082 60.5 38.869 C 56.36 43.066 41.319 55.086 22.775 57.101 C 21.009 75.956 32.419 112.433 60.5 132.294" fill="#fff"/><path d="M 60.5 132.294 C 88.581 112.446 99.99 75.972 98.225 57.117 C 79.682 55.102 64.641 43.082 60.5 38.869 C 56.36 43.066 41.319 55.086 22.775 57.101 C 21.009 75.956 32.419 112.433 60.5 132.294 Z" fill="none" stroke="#008f5f" stroke-linejoin="round" stroke-miterlimit="1" stroke-width="1.465"/><path d="m 54.268 127.389 h 12.466 z m -6.069 -5.864 h 24.606 z m -5.027 -5.86 h 34.661 z m -4.234 -5.835 h 43.13 z m -3.626 -5.86 H 85.693 Z M 32.205 98.107 H 88.8 Z m -2.644 -5.864 h 61.882 z m -2.224 -5.862 h 66.33 z M 25.521 80.522 H 95.482 Z M 24.108 74.659 H 96.895 Z M 23.13 68.837 h 74.742 z m -.495 -5.859 h 75.731 z m .39 -5.906 h 74.823 z m 19.46 -5.862 h 35.999 z m 9.972 -5.82 h 16.068 z" fill="#fff"/><path d="m 54.268 127.389 h 12.466 z m -6.069 -5.864 h 24.606 z m -5.027 -5.86 h 34.661 z m -4.234 -5.835 h 43.13 z m -3.626 -5.86 H 85.693 Z M 32.205 98.107 H 88.8 Z m -2.644 -5.864 h 61.882 z m -2.224 -5.862 h 66.33 z M 25.521 80.522 H 95.482 Z M 24.108 74.659 H 96.895 Z M 23.13 68.837 h 74.742 z m -.495 -5.859 h 75.731 z m .39 -5.906 h 74.823 z m 19.46 -5.862 h 35.999 z m 9.972 -5.82 h 16.068 z" fill="none" stroke="#008f5f" stroke-linejoin="round" stroke-miterlimit="1" stroke-width="1.465"/><path d="m 41.896 109.61 c 6.31 .563 6.445 -4.396 6.445 -5.024 V 79.801 c 0 -.895 -.961 -2.214 -2.876 -2.649 c 1.895 -.399 2.876 -1.505 2.876 -2.459 L 48.333 59.561 c 0 -3.069 -3.619 -4.488 -6.312 -3.218 c 3.292 -7.18 8.375 -3.287 10.717 -1.711 c 4.117 -4.283 10.032 -5.562 13.805 -5.554 c 9.953 .021 18.286 8.779 18.273 18.59 c -.008 8.212 -8.045 18.797 -18.01 18.983 c -4.449 .084 -8.971 -2.305 -8.976 -6.423 c -.004 -3.508 1.833 -6.563 6.276 -6.231 c 2.947 .22 3.824 1.724 3.824 3.352 c 0 1.603 -1.02 3.013 -2.568 2.958 c -.604 -.021 -1.25 -.144 -2.01 -.751 c .076 .704 1.271 2.4 3.588 2.451 c 3.523 .076 7.967 -3.199 8.683 -6.592 c .54 -2.558 -1.021 -4.188 -1.063 -6.604 c -.063 -3.589 2.621 -4.17 1.231 -8 c -1.39 -3.829 -4.541 -6.928 -10.099 -6.985 c -3.87 -.04 -9.333 3.981 -9.333 7.763 v 53.161 c -2.994 -.731 -4.759 -2.891 -5.169 -4.85 c -2.384 2.451 -5.131 3.514 -9.294 -.29" fill="#fff"/><path d="m 41.896 109.61 c 6.31 .563 6.445 -4.396 6.445 -5.024 V 79.801 c 0 -.895 -.961 -2.214 -2.876 -2.649 c 1.895 -.399 2.876 -1.505 2.876 -2.459 L 48.333 59.561 c 0 -3.069 -3.619 -4.488 -6.312 -3.218 c 3.292 -7.18 8.375 -3.287 10.717 -1.711 c 4.117 -4.283 10.032 -5.562 13.805 -5.554 c 9.953 .021 18.286 8.779 18.273 18.59 c -.008 8.212 -8.045 18.797 -18.01 18.983 c -4.449 .084 -8.971 -2.305 -8.976 -6.423 c -.004 -3.508 1.833 -6.563 6.276 -6.231 c 2.947 .22 3.824 1.724 3.824 3.352 c 0 1.603 -1.02 3.013 -2.568 2.958 c -.604 -.021 -1.25 -.144 -2.01 -.751 c .076 .704 1.271 2.4 3.588 2.451 c 3.523 .076 7.967 -3.199 8.683 -6.592 c .54 -2.558 -1.021 -4.188 -1.063 -6.604 c -.063 -3.589 2.621 -4.17 1.231 -8 c -1.39 -3.829 -4.541 -6.928 -10.099 -6.985 c -3.87 -.04 -9.333 3.981 -9.333 7.763 v 53.161 c -2.994 -.731 -4.759 -2.891 -5.169 -4.85 c -2.384 2.451 -5.131 3.514 -9.294 -.29 z" fill="none" stroke="#008f5f" stroke-linejoin="round" stroke-miterlimit="1" stroke-width="1.465"/><path d="m 4.001 121.945 l -7.985 5.384 c -.265 .179 -.74 .054 -.935 -.196 c -1.637 -2.089 -3.04 -4.293 -4.21 -6.615 c -.1 -.2 -.114 -.475 .28 -.61 l 9.42 -3.257 c .105 -.034 .243 -.058 .31 .051 c 1.004 1.663 2.055 3.324 3.172 4.987 c .048 .072 .021 .207 -.052 .256" fill="#008f5f"/></g></svg>
